X: 28872
T: Myra's
R: jig
M: 6/8
K: Amajor
|:e|cBA AFA|eAf ecA|cBA E3|F3 F2e|
cBA AFA|eAf aed|cBA FEF|A3 A2:|
|:f|e2f- f2a-|afe cBA|e2f afe|cBB B2f|
e2f- f2a-|afe cBA|BcA BAF|A3 A2:|

